svg/系统配置3.svg

<svg width="120" height="120" viewBox="0 0 120 120" fill="none" xmlns="http://www.w3.org/2000/svg"><rect width="120" height="120" fill="#DADADA"/><rect width="120" height="120" rx="30" fill="url(#paint1_linear_2483_15959)"/><path d="M95.1612 47.8607C94.7342 46.5112 93.4532 45.604 92.012 45.619C91.9815 45.619 91.951 45.619 91.9205 45.619C88.2453 45.619 85.2563 42.68 85.2563 39.0438C85.2563 37.9942 85.5003 37.012 85.9426 36.1424C86.5754 34.8753 86.2933 33.3533 85.2411 32.3937C81.0473 28.5476 75.9234 25.6686 70.2275 24.1166C68.7406 23.7118 67.1623 24.394 66.4608 25.7436C65.3551 27.8878 63.0981 29.3348 60.5133 29.3348C57.9284 29.3348 55.679 27.8878 54.5658 25.7436C53.8643 24.3865 52.2935 23.7118 50.7991 24.1166C45.1108 25.6686 39.9868 28.5476 35.7855 32.3937C34.7408 33.3533 34.4511 34.8753 35.084 36.1424C35.5186 37.012 35.7702 37.9942 35.7702 39.0438C35.7702 42.68 32.7812 45.619 29.106 45.619C29.0755 45.619 29.045 45.619 29.0145 45.619C27.581 45.5965 26.3 46.5112 25.8654 47.8607C24.7826 51.2495 24.2031 54.8557 24.2031 58.5894C24.2031 61.056 24.4548 63.4626 24.9427 65.7868C25.2782 67.3912 26.788 68.4859 28.4426 68.3284C28.6637 68.3059 28.8849 68.2984 29.106 68.2984C32.7812 68.2984 35.7702 71.2374 35.7702 74.8736C35.7702 76.493 35.1831 77.97 34.1995 79.1096C33.132 80.3616 33.193 82.1985 34.3443 83.3831C38.6296 87.769 44.0433 91.0828 50.128 92.8672C51.8208 93.362 53.6127 92.4323 54.154 90.7754C55.0157 88.1214 57.5395 86.2095 60.5056 86.2095C63.4718 86.2095 65.9956 88.1214 66.8573 90.7754C67.3986 92.4323 69.1829 93.362 70.8832 92.8672C76.9756 91.0828 82.3893 87.769 86.667 83.3831C87.8183 82.206 87.8793 80.3616 86.8118 79.1096C85.8282 77.9625 85.2411 76.493 85.2411 74.8736C85.2411 71.2374 88.2301 68.2984 91.9053 68.2984C92.1341 68.2984 92.3552 68.3059 92.5687 68.3284C94.2233 68.4859 95.7407 67.3912 96.0685 65.7868C96.5489 63.4551 96.8082 61.0485 96.8082 58.5894C96.8082 54.8557 96.2287 51.2495 95.1459 47.8607H95.1612ZM60.5209 72.5569C52.629 72.5569 46.2241 66.2666 46.2241 58.4994C46.2241 50.7322 52.6214 44.4419 60.5209 44.4419C68.4204 44.4419 74.8177 50.7322 74.8177 58.4994C74.8177 66.2666 68.4204 72.5569 60.5209 72.5569Z" fill="url(#paint2_linear_2483_15959)" stroke="url(#paint3_linear_2483_15959)"/><path opacity="0.8" d="M60.0011 67C64.735 67 68.5725 63.1944 68.5725 58.5C68.5725 53.8056 64.735 50 60.0011 50C55.2672 50 51.4297 53.8056 51.4297 58.5C51.4297 63.1944 55.2672 67 60.0011 67Z" fill="url(#paint4_linear_2483_15959)"/><defs><linearGradient id="paint1_linear_2483_15959" x1="60" y1="120" x2="60" y2="5.72204e-05" gradientUnits="userSpaceOnUse"><stop stop-color="#8E8E93"/><stop offset="1" stop-color="#E5E5EA"/></linearGradient><linearGradient id="paint2_linear_2483_15959" x1="60.5056" y1="24" x2="60.5056" y2="93" gradientUnits="userSpaceOnUse"><stop stop-color="#7E7E7E"/><stop offset="1" stop-color="#434445"/></linearGradient><linearGradient id="paint3_linear_2483_15959" x1="60.5056" y1="24" x2="60.5056" y2="93" gradientUnits="userSpaceOnUse"><stop stop-color="#EDEDED"/><stop offset="1" stop-color="#343434"/></linearGradient><linearGradient id="paint4_linear_2483_15959" x1="60.0011" y1="50" x2="60.0011" y2="67" gradientUnits="userSpaceOnUse"><stop stop-color="white"/><stop offset="1" stop-color="#D0D0D0"/></linearGradient><clipPath id="clip0_2483_15959"></clipPath></defs></svg>

<svg fill="none" viewBox="0 0 120 120"><path fill="#DADADA" d="M0 0h120v120H0z"/><rect width="120" height="120" fill="url(#a)" rx="30"/><path fill="url(#b)" stroke="url(#c)" d="M95.161 47.86c-.427-1.349-1.708-2.256-3.149-2.241h-.091c-3.676 0-6.665-2.939-6.665-6.575 0-1.05.244-2.032.687-2.902a3.15 3.15 0 0 0-.702-3.748 36.34 36.34 0 0 0-15.013-8.277c-1.487-.405-3.066.277-3.767 1.627a6.67 6.67 0 0 1-5.948 3.59 6.68 6.68 0 0 1-5.947-3.59c-.702-1.357-2.273-2.032-3.767-1.627a36.44 36.44 0 0 0-15.013 8.277 3.16 3.16 0 0 0-.702 3.748c.435.87.686 1.852.686 2.902 0 3.636-2.989 6.575-6.664 6.575h-.091a3.25 3.25 0 0 0-3.15 2.242 35.2 35.2 0 0 0-1.662 10.728c0 2.467.252 4.874.74 7.198.335 1.604 1.845 2.699 3.5 2.541q.33-.032.663-.03c3.675 0 6.664 2.94 6.664 6.576a6.45 6.45 0 0 1-1.57 4.236 3.16 3.16 0 0 0 .144 4.273 36.4 36.4 0 0 0 15.784 9.484c1.693.495 3.485-.435 4.026-2.092.862-2.654 3.385-4.565 6.352-4.565 2.966 0 5.49 1.911 6.351 4.565.542 1.657 2.326 2.587 4.026 2.092a36.3 36.3 0 0 0 15.784-9.484 3.16 3.16 0 0 0 .145-4.273 6.46 6.46 0 0 1-1.57-4.236c0-3.637 2.988-6.576 6.663-6.576q.344-.002.664.03c1.654.158 3.172-.937 3.5-2.541.48-2.332.74-4.739.74-7.198 0-3.733-.58-7.34-1.663-10.728zm-34.64 24.697c-7.892 0-14.297-6.29-14.297-14.058s6.397-14.057 14.297-14.057 14.297 6.29 14.297 14.057S68.42 72.557 60.52 72.557Z"/><path fill="url(#d)" d="M60.001 67c4.734 0 8.572-3.806 8.572-8.5S64.735 50 60 50s-8.571 3.806-8.571 8.5S55.267 67 60 67" opacity=".8"/><defs><linearGradient id="a" x1="60" x2="60" y1="120" y2="0" gradientUnits="userSpaceOnUse"><stop stop-color="#8E8E93"/><stop offset="1" stop-color="#E5E5EA"/></linearGradient><linearGradient id="b" x1="60.506" x2="60.506" y1="24" y2="93" gradientUnits="userSpaceOnUse"><stop stop-color="#7E7E7E"/><stop offset="1" stop-color="#434445"/></linearGradient><linearGradient id="c" x1="60.506" x2="60.506" y1="24" y2="93" gradientUnits="userSpaceOnUse"><stop stop-color="#EDEDED"/><stop offset="1" stop-color="#343434"/></linearGradient><linearGradient id="d" x1="60.001" x2="60.001" y1="50" y2="67" gradientUnits="userSpaceOnUse"><stop stop-color="white"/><stop offset="1" stop-color="#D0D0D0"/></linearGradient></defs></svg>
